X: 63
T: Maud Miller
R: reel
Z: 2012 John Chambers <jc@trillian.mit.edu>
B: "100 Essential Irish Session Tunes" 1995 Dave Mallinson, ed.
M: 4/4
L: 1/8
K: Em
gf |\
"C"edBA "D"GEDE | "G"((3GFG) BG dGBG | "Em"eBdB "D"A2GA | "Em"Beed e2 :|
ge |\
"G"dega bg~g2 | "D"agef "C"gfge | "G"dega bgag | "Am"eaag "D"abge |
"G"dega bg~g2 | "D"agef "Em"gfga | "G"bgaf "C"gfed | "Em"Be"C"ed "Em"e2 |]

%%sep 2 1 500
%%sep 1 1 500

